public/favicon.svg

<svg width="96" height="96" viewBox="0 0 96 96" fill="none" xmlns="http://www.w3.org/2000/svg">
<rect width="96" height="96" fill="#007AFF"/>
<path d="M46.174 16.9586C47.087 15.6805 49.8259 15.6805 50.5563 16.9586C49.8259 26.6362 49.2782 33.0271 49.2782 47.087C63.1555 47.087 70.2767 46.5392 79.0414 45.9914C80.3195 46.9044 80.3195 49.6434 79.0414 50.3738C69.3638 49.6434 62.9729 49.0956 49.2782 49.0956C49.2782 63.1555 49.8259 69.5464 50.5563 79.0414C49.8259 80.3195 47.087 80.3195 46.174 79.0414C46.7218 70.2768 46.7218 62.9729 46.7218 49.0956C32.8445 49.0956 26.4536 49.6434 16.9586 50.3738C15.6805 49.6434 15.6805 46.9044 16.9586 45.9914C25.5407 46.5392 32.8445 47.087 46.7218 47.087C46.7218 33.0271 46.7218 25.7232 46.174 16.9586Z" fill="white"/>
</svg>

<svg xmlns="http://www.w3.org/2000/svg" width="96" height="96" fill="none">
  <path fill="#007AFF" d="M0 0h96v96H0z"/>
  <path fill="#fff" d="M46.174 16.959c.913-1.278 3.652-1.278 4.382 0-.73 9.677-1.278 16.068-1.278 30.128 13.878 0 20.999-.548 29.763-1.096 1.279.913 1.279 3.652 0 4.383-9.677-.73-16.068-1.278-29.763-1.278 0 14.06.548 20.45 1.278 29.945-.73 1.279-3.469 1.279-4.382 0 .548-8.764.548-16.068.548-29.945-13.878 0-20.268.547-29.763 1.278-1.278-.73-1.278-3.47 0-4.383 8.582.548 15.885 1.096 29.763 1.096 0-14.06 0-21.364-.548-30.128Z"/>
</svg>
